;FLAVOR:Marlin
;TIME:17989
;Filament used: 13.5895m
;Layer height: 0.2
;MINX:88.805
;MINY:47.702
;MINZ:0.2
;MAXX:131.051
;MAXY:172.682
;MAXZ:8
;Generated with Cura_SteamEngine 4.12.0
M140 S60
M105
M190 S60
M104 S200
M105
M109 S200
M82 ;absolute extrusion mode
; Ender 3 Custom Start G-code
G92 E0 ; Reset Extruder
G28 ; Home all axes
G1 Z2.0 F3000 ; Move Z Axis up little to prevent scratching of Heat Bed
G1 X0.1 Y20 Z0.3 F5000.0 ; Move to start position
G1 X0.1 Y200.0 Z0.3 F1500.0 E15 ; Draw the first line
G1 X0.4 Y200.0 Z0.3 F5000.0 ; Move to side a little
G1 X0.4 Y20 Z0.3 F1500.0 E30 ; Draw the second line
G92 E0 ; Reset Extruder
G1 Z2.0 F3000 ; Move Z Axis up little to prevent scratching of Heat Bed
G1 X5 Y20 Z0.3 F5000.0 ; Move over to prevent blob squish
G92 E0
G92 E0
G1 F2700 E-6.5
;LAYER_COUNT:40
;LAYER:0
M107
;MESH:Body1.stl
G0 F6000 X110.664 Y80.101 Z0.2
;TYPE:WALL-INNER
G1 F2700 E0
G1 F1200 X110.99 Y80.071 E0.01089
G1 X111.304 Y79.984 E0.02173
G1 X111.595 Y79.846 E0.03244
G1 X111.859 Y79.66 E0.04318
G1 X112.09 Y79.43 E0.05402
G1 X112.275 Y79.161 E0.06488
G1 X112.411 Y78.867 E0.07565
G1 X112.494 Y78.554 E0.08642
G1 X112.522 Y78.231 E0.09721
G1 X112.492 Y77.905 E0.1081
G1 X112.405 Y77.591 E0.11893
G1 X112.267 Y77.3 E0.12964
G1 X112.08 Y77.034 E0.14046
G1 X111.849 Y76.805 E0.15128
G1 X111.583 Y76.621 E0.16204
G1 X111.288 Y76.484 E0.17285
G1 X110.975 Y76.401 E0.18362
G1 X110.652 Y76.373 E0.19441
G1 X110.326 Y76.403 E0.2053
G1 X110.011 Y76.49 E0.21616
G1 X109.72 Y76.628 E0.22688
G1 X109.454 Y76.815 E0.23769
G1 X109.225 Y77.047 E0.24853
G1 X109.041 Y77.313 E0.25929
G1 X108.905 Y77.607 E0.27007
G1 X108.822 Y77.92 E0.28084
G1 X108.794 Y78.243 E0.29162
G1 X108.824 Y78.569 E0.30251
G1 X108.911 Y78.883 E0.31334
G1 X109.049 Y79.175 E0.32409
G1 X109.236 Y79.441 E0.3349
G1 X109.466 Y79.669 E0.34567
G1 X109.732 Y79.853 E0.35643
G1 X110.027 Y79.99 E0.36725
G1 X110.341 Y80.073 E0.37805
G1 X110.664 Y80.101 E0.38883
G0 F6000 X110.663 Y79.699
;TYPE:WALL-OUTER
G1 F1200 X110.918 Y79.676 E0.39735
G1 X111.164 Y79.608 E0.40584
G1 X111.393 Y79.499 E0.41427
G1 X111.601 Y79.353 E0.42273
G1 X111.781 Y79.173 E0.43119
G1 X111.926 Y78.962 E0.43971
G1 X112.033 Y78.731 E0.44818
G1 X112.098 Y78.485 E0.45664
G1 X112.12 Y78.232 E0.46509
G1 X112.097 Y77.977 E0.4736
G1 X112.029 Y77.731 E0.48209
G1 X111.92 Y77.502 E0.49053
G1 X111.773 Y77.293 E0.49902
G1 X111.592 Y77.114 E0.50749
G1 X111.383 Y76.969 E0.51595
G1 X111.152 Y76.862 E0.52442
G1 X110.906 Y76.797 E0.53288
G1 X110.653 Y76.775 E0.54133
G1 X110.398 Y76.798 E0.54984
G1 X110.151 Y76.866 E0.55836
G1 X109.922 Y76.975 E0.5668
G1 X109.713 Y77.122 E0.5753
G1 X109.534 Y77.303 E0.58376
G1 X109.39 Y77.512 E0.59221
G1 X109.283 Y77.743 E0.60067
G1 X109.218 Y77.989 E0.60914
G1 X109.196 Y78.242 E0.61758
G1 X109.219 Y78.497 E0.6261
G1 X109.287 Y78.743 E0.63459
G1 X109.396 Y78.973 E0.64305
G1 X109.543 Y79.182 E0.65155
G1 X109.723 Y79.36 E0.65997
G1 X109.932 Y79.505 E0.66843
G1 X110.163 Y79.612 E0.6769
G1 X110.41 Y79.677 E0.68539
G1 X110.663 Y79.699 E0.69384
G0 F6000 X110.663 Y80.139
G1 F2700 E-5.80616
G0 F6000 X110.666 Y78.831
G0 X109.631 Y153.362
G0 X109.632 Y151.901
G0 X108.542 Y152.656
G0 X108.163 Y153.113
G0 X107.962 Y153.668
G0 X107.963 Y154.259
G0 X108.17 Y154.812
G0 X108.552 Y155.263
G0 X109.645 Y155.82
;TYPE:WALL-INNER
G1 F2700 E0.69384
G1 F1200 X109.971 Y155.79 E0.70473
G1 X110.285 Y155.703 E0.71557
G1 X110.577 Y155.565 E0.72631
G1 X110.843 Y155.378 E0.73712
G1 X111.072 Y155.146 E0.74797
G1 X111.256 Y154.88 E0.75872
G1 X111.392 Y154.586 E0.7695
G1 X111.475 Y154.273 E0.78027
G1 X111.503 Y153.95 E0.79105
G1 X111.473 Y153.624 E0.80194
G1 X111.386 Y153.31 E0.81278
G1 X111.248 Y153.018 E0.82352
G1 X111.061 Y152.752 E0.83433
G1 X110.83 Y152.524 E0.84513
G1 X110.563 Y152.339 E0.85593
G1 X110.269 Y152.203 E0.86671
G1 X109.956 Y152.12 E0.87748
G1 X109.633 Y152.092 E0.88826
G1 X109.307 Y152.122 E0.89915
G1 X108.993 Y152.209 E0.90999
G1 X108.702 Y152.347 E0.9207
G1 X108.438 Y152.533 E0.93144
G1 X108.207 Y152.763 E0.94228
G1 X108.022 Y153.032 E0.95314
G1 X107.886 Y153.326 E0.96391
G1 X107.803 Y153.639 E0.97468
G1 X107.775 Y153.962 E0.98547
G1 X107.805 Y154.288 E0.99636
G1 X107.892 Y154.602 E1.00719
G1 X108.03 Y154.893 E1.0179
G1 X108.217 Y155.159 E1.02872
G1 X108.448 Y155.388 E1.03954
G1 X108.714 Y155.572 E1.0503
G1 X109.009 Y155.709 E1.06111
G1 X109.322 Y155.792 E1.07188
G1 X109.645 Y155.82 E1.08267
G0 F6000 X109.644 Y155.418
;TYPE:WALL-OUTER
G1 F1200 X109.899 Y155.395 E1.09118
G1 X110.145 Y155.327 E1.09967
G1 X110.375 Y155.218 E1.10814
G1 X110.584 Y155.071 E1.11664
G1 X110.763 Y154.89 E1.1251
G1 X110.907 Y154.681 E1.13354
G1 X111.014 Y154.45 E1.14201
G1 X111.079 Y154.204 E1.15047
G1 X111.101 Y153.951 E1.15892
G1 X111.078 Y153.696 E1.16744
G1 X111.01 Y153.45 E1.17593
G1 X110.901 Y153.22 E1.18439
G1 X110.754 Y153.011 E1.19289
G1 X110.574 Y152.833 E1.20131
G1 X110.364 Y152.688 E1.2098
G1 X110.133 Y152.581 E1.21826
G1 X109.887 Y152.516 E1.22673
G1 X109.634 Y152.494 E1.23517
G1 X109.379 Y152.517 E1.24369
G1 X109.133 Y152.585 E1.25218
G1 X108.904 Y152.694 E1.26061
G1 X108.696 Y152.84 E1.26907
G1 X108.516 Y153.02 E1.27753
G1 X108.371 Y153.231 E1.28605
G1 X108.264 Y153.462 E1.29451
G1 X108.199 Y153.708 E1.30298
G1 X108.177 Y153.961 E1.31142
G1 X108.2 Y154.216 E1.31994
G1 X108.268 Y154.462 E1.32843
G1 X108.377 Y154.691 E1.33686
G1 X108.524 Y154.9 E1.34536
G1 X108.705 Y155.079 E1.35383
G1 X108.914 Y155.224 E1.36229
G1 X109.145 Y155.331 E1.37076
G1 X109.391 Y155.396 E1.37922
G1 X109.644 Y155.418 E1.38767
G0 F6000 X109.644 Y155.858
G1 F2700 E-5.11233
G0 F6000 X109.647 Y154.55
G0 X112.385 Y172.681
G0 X112.146 Y171.227
G0 X109.398 Y171.891
;TYPE:WALL-INNER
G1 F2700 E1.38767
G1 F1200 X103.4 Y170.739 E1.59081
G1 X98.193 Y167.093 E1.80223
G1 X94.449 Y160.994 E2.04025
G1 X92.158 Y153.65 E2.29613
G1 X89.971 Y141.805 E2.69675
G1 X89.356 Y126.618 E3.20229
G1 X90.066 Y110.777 E3.72969
G1 X92.157 Y92.698 E4.33501
G1 X94.741 Y75.743 E4.90544
G1 X98.137 Y62.586 E5.35739
G1 X100.815 Y56.141 E5.58952
G1 X103.359 Y51.858 E5.75521
G1 X106.229 Y49.215 E5.88498
G1 X108.164 Y48.42 E5.95455
G1 X111.067 Y48.105 E6.05168
G1 X113.948 Y48.496 E6.14838
G1 X115.868 Y49.345 E6.2182
G1 X118.66 Y52.061 E6.34775
G1 X121.094 Y56.416 E6.51369
G1 X123.594 Y62.926 E6.74563
G1 X126.637 Y76.176 E7.1978
G1 X128.762 Y93.185 E7.76792
G1 X130.367 Y111.305 E8.37295
G1 X130.651 Y127.169 E8.90067
G1 X129.627 Y142.336 E9.40628
G1 X127.119 Y154.13 E9.80732
G1 X124.636 Y161.396 E10.06271
G1 X120.727 Y167.396 E10.30089
G1 X115.424 Y170.901 E10.51231
G1 X109.398 Y171.891 E10.71542
G0 F6000 X109.393 Y172.297
;TYPE:WALL-OUTER
G1 F1200 X103.241 Y171.116 E10.92377
G1 X97.896 Y167.373 E11.1408
G1 X94.082 Y161.16 E11.38328
G1 X91.77 Y153.749 E11.64149
G1 X89.572 Y141.845 E12.04411
G1 X88.955 Y126.618 E12.55098
G1 X89.666 Y110.759 E13.07898
G1 X91.762 Y92.638 E13.6857
G1 X94.349 Y75.661 E14.25688
G1 X97.757 Y62.46 E14.71034
G1 X100.458 Y55.958 E14.94452
G1 X103.045 Y51.604 E15.11296
G1 X106.011 Y48.872 E15.24709
G1 X108.065 Y48.028 E15.32094
G1 X111.07 Y47.702 E15.42148
G1 X114.06 Y48.108 E15.52184
G1 X116.096 Y49.008 E15.59588
G1 X118.98 Y51.814 E15.72971
G1 X121.456 Y56.244 E15.8985
G1 X123.979 Y62.814 E16.13258
G1 X127.031 Y76.105 E16.58615
G1 X129.159 Y93.135 E17.15697
G1 X130.767 Y111.298 E17.76344
G1 X131.051 Y127.177 E18.29166
G1 X130.024 Y142.39 E18.7988
G1 X127.506 Y154.234 E19.20154
G1 X124.997 Y161.573 E19.4595
G1 X121.016 Y167.685 E19.70211
G1 X115.574 Y171.282 E19.91907
G1 X109.393 Y172.297 E20.12741
G0 F6000 X109.398 Y171.858
G0 X109.406 Y171.495
;TYPE:SKIN
G1 F1200 X103.557 Y170.372 E20.3255
G1 X98.482 Y166.818 E20.53157
G1 X94.807 Y160.833 E20.76516
G1 X92.539 Y153.56 E21.01855
G1 X90.359 Y141.76 E21.41766
G1 X89.746 Y126.618 E21.9217
G1 X90.454 Y110.822 E22.44761
G1 X92.543 Y92.757 E23.05246
G1 X95.124 Y75.819 E23.62232
G1 X98.508 Y62.708 E24.07268
G1 X101.166 Y56.314 E24.30299
G1 X103.665 Y52.107 E24.46574
G1 X106.441 Y49.55 E24.59127
G1 X108.261 Y48.802 E24.65672
G1 X111.065 Y48.498 E24.75053
G1 X113.838 Y48.874 E24.8436
G1 X115.65 Y49.675 E24.90949
G1 X118.343 Y52.296 E25.03448
G1 X120.743 Y56.587 E25.19801
G1 X123.22 Y63.039 E25.42787
G1 X126.252 Y76.24 E25.87837
G1 X128.375 Y93.227 E26.44776
G1 X129.977 Y111.312 E27.05162
G1 X130.261 Y127.143 E27.57825
G1 X129.239 Y142.283 E28.08295
G1 X126.74 Y154.032 E28.48247
G1 X124.283 Y161.222 E28.73519
G1 X120.445 Y167.114 E28.96906
G1 X115.276 Y170.531 E29.17515
G1 X109.406 Y171.495 E29.37301
G1 F2700 E22.87301
G0 F6000 X109.45 Y171.771
G0 X112.16 Y171.225
G0 X112.399 Y172.679
G0 X109.741 Y154.541
G0 X110.006 Y155.978
G0 X109.647 Y155.931
G1 F2700 E29.37301
G0 F6000 X109.646 Y156.212
G1 F1200 X110.041 Y156.176 E29.3862
G1 X110.422 Y156.07 E29.39935
G1 X110.774 Y155.903 E29.41231
G1 X111.096 Y155.677 E29.42539
G1 X111.374 Y155.396 E29.43854
G1 X111.596 Y155.075 E29.45152
G1 X111.76 Y154.719 E29.46456
G1 X111.861 Y154.341 E29.47757
G1 X111.895 Y153.949 E29.49066
G1 X111.859 Y153.554 E29.50385
G1 X111.753 Y153.173 E29.51701
G1 X111.586 Y152.821 E29.52996
G1 X111.36 Y152.499 E29.54305
G1 X111.08 Y152.222 E29.55615
G1 X110.758 Y151.999 E29.56918
G1 X110.402 Y151.835 E29.58221
G1 X110.024 Y151.734 E29.59523
G1 X109.632 Y151.7 E29.60831
G1 X109.237 Y151.736 E29.6215
G1 X108.856 Y151.842 E29.63466
G1 X108.505 Y152.009 E29.64759
G1 X108.186 Y152.233 E29.66055
G1 X107.906 Y152.512 E29.6737
G1 X107.682 Y152.839 E29.68688
G1 X107.518 Y153.193 E29.69986
G1 X107.417 Y153.571 E29.71287
G1 X107.383 Y153.963 E29.72596
G1 X107.419 Y154.358 E29.73915
G1 X107.525 Y154.739 E29.7523
G1 X107.692 Y155.09 E29.76523
G1 X107.918 Y155.412 E29.77832
G1 X108.198 Y155.689 E29.79142
G1 X108.519 Y155.911 E29.8044
G1 X108.876 Y156.077 E29.81749
G1 X109.254 Y156.178 E29.8305
G1 X109.646 Y156.212 E29.84359
G1 F2700 E23.34359
G0 F6000 X109.647 Y155.931
G0 X108.552 Y155.263
G0 X108.17 Y154.812
G0 X107.963 Y154.259
G0 X107.962 Y153.668
G0 X108.163 Y153.113
G0 X108.469 Y152.744
G0 X109.632 Y151.901
G0 X109.631 Y153.362
G0 X110.666 Y78.831
G0 X110.665 Y80.292
G1 F2700 E29.84359
G0 F6000 X110.665 Y80.493
G1 F1200 X111.06 Y80.457 E29.85678
G1 X111.441 Y80.351 E29.86994
G1 X111.792 Y80.184 E29.88287
G1 X112.111 Y79.96 E29.89583
G1 X112.391 Y79.681 E29.90898
G1 X112.615 Y79.354 E29.92216
G1 X112.779 Y79 E29.93514
G1 X112.88 Y78.622 E29.94815
G1 X112.914 Y78.23 E29.96124
G1 X112.878 Y77.835 E29.97443
G1 X112.772 Y77.454 E29.98758
G1 X112.605 Y77.103 E30.00051
G1 X112.379 Y76.781 E30.01359
G1 X112.099 Y76.504 E30.02669
G1 X111.778 Y76.282 E30.03968
G1 X111.421 Y76.116 E30.05277
G1 X111.043 Y76.015 E30.06578
G1 X110.651 Y75.981 E30.07887
G1 X110.256 Y76.017 E30.09206
G1 X109.874 Y76.123 E30.10525
G1 X109.523 Y76.29 E30.11818
G1 X109.201 Y76.516 E30.13126
G1 X108.923 Y76.797 E30.14441
G1 X108.701 Y77.118 E30.15739
G1 X108.537 Y77.474 E30.17043
G1 X108.436 Y77.852 E30.18344
G1 X108.402 Y78.244 E30.19653
G1 X108.438 Y78.639 E30.20972
G1 X108.544 Y79.02 E30.22287
G1 X108.711 Y79.372 E30.23583
G1 X108.937 Y79.694 E30.24891
G1 X109.216 Y79.97 E30.26197
G1 X109.537 Y80.192 E30.27495
G1 X109.894 Y80.358 E30.28804
G1 X110.274 Y80.459 E30.30112
G1 X110.665 Y80.493 E30.31417
G1 F2700 E23.81417
G0 F6000 X110.666 Y80.212
G0 X111.755 Y79.537
G0 X112.134 Y79.08
G0 X112.335 Y78.525
G0 X112.334 Y77.934
G0 X112.167 Y77.487
G0 X111.354 Y76.304
G0 X110.86 Y77.678
G0 X122.278 Y55.975
G0 X120.903 Y56.503
G0 X118.854 Y52.633
G1 F2700 E30.31417
G0 F6000 X118.466 Y52.847
G1 F1200 X115.326 Y49.707 E30.46187
G0 F6000 X115.504 Y49.306
G0 X114.49 Y48.857
G0 X114.312 Y49.258
G1 F1200 X119.184 Y54.131 E30.69106
G0 F6000 X119.571 Y53.916
G0 X120.288 Y55.199
G0 X119.902 Y55.414
G1 F1200 X113.474 Y48.986 E30.99341
G0 F6000 X112.82 Y48.897
G1 F1200 X120.609 Y56.686 E31.35978
G0 F6000 X120.961 Y57.604
G1 F1200 X112.166 Y48.809 E31.77347
G0 F6000 X111.512 Y48.721
G1 F1200 X121.314 Y58.522 E32.2345
G0 F6000 X121.666 Y59.441
G1 F1200 X110.903 Y48.677 E32.74079
G0 F6000 X110.392 Y48.733
G1 F1200 X122.019 Y60.359 E33.28766
G0 F6000 X122.371 Y61.277
G1 F1200 X109.882 Y48.788 E33.87511
G0 F6000 X109.371 Y48.843
G1 F1200 X122.724 Y62.196 E34.50319
G0 F6000 X123.071 Y63.109
G1 F1200 X108.861 Y48.898 E35.17161
G0 F6000 X108.35 Y48.953
G1 F1200 X123.24 Y63.843 E35.87199
G0 F6000 X123.409 Y64.577
G1 F1200 X107.938 Y49.107 E36.59967
G0 F6000 X107.537 Y49.271
G1 F1200 X123.577 Y65.311 E37.35415
G0 F6000 X123.745 Y66.045
G1 F1200 X107.137 Y49.437 E38.13533
G0 F6000 X106.736 Y49.602
G1 F1200 X123.914 Y66.78 E38.94334
G0 F6000 X124.083 Y67.514
G1 F1200 X106.386 Y49.817 E39.77575
G0 F6000 X106.091 Y50.088
G1 F1200 X124.252 Y68.249 E40.62999
G0 F6000 X124.42 Y68.983
G1 F1200 X105.797 Y50.36 E41.50595
G0 F6000 X105.503 Y50.631
G1 F1200 X124.589 Y69.717 E42.4037
G0 F6000 X124.757 Y70.451
G1 F1200 X105.208 Y50.902 E43.32323
G0 F6000 X104.914 Y51.174
G1 F1200 X124.926 Y71.186 E44.26453
G0 F6000 X125.094 Y71.92
G1 F1200 X104.619 Y51.445 E45.22761
G0 F6000 X104.325 Y51.716
G1 F1200 X125.263 Y72.655 E46.21249
G0 F6000 X125.432 Y73.389
G1 F1200 X104.03 Y51.987 E47.21918
G0 F6000 X103.751 Y52.274
G1 F1200 X125.6 Y74.123 E48.24689
G0 F6000 X125.769 Y74.857
G1 F1200 X103.54 Y52.628 E49.29247
G0 F6000 X103.329 Y52.983
G1 F1200 X125.937 Y75.591 E50.35588
G0 F6000 X126.1 Y76.32
G1 F1200 X103.118 Y53.338 E51.43689
G0 F6000 X102.908 Y53.693
G1 F1200 X126.181 Y76.966 E52.53158
G0 F6000 X126.261 Y77.612
G1 F1200 X102.697 Y54.048 E53.63995
G0 F6000 X102.485 Y54.402
G1 F1200 X126.343 Y78.259 E54.76214
G0 F6000 X126.423 Y78.906
G1 F1200 X102.275 Y54.757 E55.89801
G0 F6000 X102.064 Y55.112
G1 F1200 X126.504 Y79.552 E57.04759
G0 F6000 X126.585 Y80.199
G1 F1200 X101.853 Y55.467 E58.21091
G0 F6000 X101.643 Y55.822
G1 F1200 X126.666 Y80.845 E59.38792
G0 F6000 X126.746 Y81.491
G1 F1200 X101.431 Y56.176 E60.57866
G0 F6000 X101.24 Y56.55
G1 F1200 X126.828 Y82.138 E61.78224
G0 F6000 X126.908 Y82.785
G1 F1200 X101.073 Y56.95 E62.99744
G0 F6000 X100.907 Y57.349
G1 F1200 X126.989 Y83.431 E64.22425
G0 F6000 X127.069 Y84.077
G1 F1200 X100.741 Y57.749 E65.46264
G0 F6000 X100.575 Y58.148
G1 F1200 X127.151 Y84.724 E66.71269
G0 F6000 X127.231 Y85.371
G1 F1200 X100.409 Y58.548 E67.97434
G0 F6000 X100.242 Y58.947
G1 F1200 X127.312 Y86.017 E69.24763
G0 F6000 X127.393 Y86.664
G1 F1200 X100.076 Y59.347 E70.53254
G0 F6000 X99.91 Y59.746
G1 F1200 X127.474 Y87.31 E71.82907
G0 F6000 X127.554 Y87.957
G1 F1200 X99.744 Y60.146 E73.13719
G0 F6000 X99.578 Y60.546
G1 F1200 X127.636 Y88.604 E74.45695
G0 F6000 X127.716 Y89.25
G1 F1200 X99.412 Y60.946 E75.78828
G0 F6000 X99.246 Y61.345
G1 F1200 X127.797 Y89.896 E77.13123
G0 F6000 X127.878 Y90.543
G1 F1200 X99.08 Y61.745 E78.4858
G0 F6000 X98.914 Y62.144
G1 F1200 X127.959 Y91.189 E79.85199
G0 F6000 X128.04 Y91.836
G1 F1200 X98.748 Y62.544 E81.2298
G0 F6000 X98.605 Y62.967
G1 F1200 X111.714 Y76.076 E81.84641
G0 F6000 X110.915 Y75.842
G1 F1200 X98.489 Y63.416 E82.43089
G0 F6000 X98.372 Y63.865
G1 F1200 X110.353 Y75.847 E82.99446
G0 F6000 X109.892 Y75.951
G1 F1200 X98.256 Y64.315 E83.54178
G0 F6000 X98.14 Y64.765
G1 F1200 X109.499 Y76.123 E84.07605
G0 F6000 X109.158 Y76.349
G1 F1200 X98.024 Y65.215 E84.59976
G0 F6000 X97.908 Y65.664
G1 F1200 X108.868 Y76.624 E85.11528
G0 F6000 X108.625 Y76.946
G1 F1200 X97.792 Y66.114 E85.62481
G0 F6000 X97.676 Y66.564
G1 F1200 X108.431 Y77.318 E86.13067
G0 F6000 X108.297 Y77.75
G1 F1200 X97.56 Y67.013 E86.63571
G0 F6000 X97.444 Y67.463
G1 F1200 X108.242 Y78.261 E87.14361
G0 F6000 X108.355 Y78.939
