;FLAVOR:Marlin
;TIME:4374
;Filament used: 1.3105m
;Layer height: 0.2
;MINX:86.429
;MINY:82.769
;MINZ:0.2
;MAXX:132.353
;MAXY:138.15
;MAXZ:30
;Generated with Cura_SteamEngine 4.12.0
M140 S60
M105
M190 S60
M104 S200
M105
M109 S200
M82 ;absolute extrusion mode
; Ender 3 Custom Start G-code
G92 E0 ; Reset Extruder
G28 ; Home all axes
G1 Z2.0 F3000 ; Move Z Axis up little to prevent scratching of Heat Bed
G1 X0.1 Y20 Z0.3 F5000.0 ; Move to start position
G1 X0.1 Y200.0 Z0.3 F1500.0 E15 ; Draw the first line
G1 X0.4 Y200.0 Z0.3 F5000.0 ; Move to side a little
G1 X0.4 Y20 Z0.3 F1500.0 E30 ; Draw the second line
G92 E0 ; Reset Extruder
G1 Z2.0 F3000 ; Move Z Axis up little to prevent scratching of Heat Bed
G1 X5 Y20 Z0.3 F5000.0 ; Move over to prevent blob squish
G92 E0
G92 E0
G1 F1500 E-6.5
;LAYER_COUNT:150
;LAYER:0
M107
G0 F6000 X88.636 Y85.989 Z0.2
;TYPE:SKIRT
G1 F1500 E0
G1 F1200 X89.186 Y85.422 E0.02627
G1 X89.791 Y84.914 E0.05255
G1 X90.262 Y84.584 E0.07168
G1 X91.132 Y84.021 E0.10614
G1 X91.816 Y83.626 E0.13241
G1 X92.536 Y83.302 E0.15867
G1 X93.286 Y83.053 E0.18496
G1 X94.056 Y82.88 E0.21121
G1 X94.841 Y82.787 E0.2375
G1 X95.37 Y82.769 E0.2551
G1 X96.246 Y82.769 E0.28424
G1 X97.035 Y82.809 E0.31052
G1 X97.815 Y82.928 E0.33676
G1 X98.58 Y83.126 E0.36304
G1 X99.486 Y83.474 E0.39532
G1 X101.726 Y84.497 E0.47723
G1 X102.427 Y84.861 E0.5035
G1 X103.086 Y85.293 E0.5297
G1 X105.337 Y86.937 E0.62242
G1 X105.951 Y87.435 E0.64871
G1 X106.279 Y87.747 E0.66377
G1 X107.628 Y89.109 E0.72753
G1 X108.44 Y89.755 E0.76204
G1 X108.883 Y89.984 E0.77862
G1 X109.565 Y90.381 E0.80487
G1 X110.204 Y90.845 E0.83114
G1 X110.716 Y91.297 E0.85385
G1 X112.418 Y92.937 E0.93246
G1 X112.958 Y93.513 E0.95872
G1 X113.373 Y94.049 E0.98127
G1 X114.73 Y95.967 E1.05941
G1 X115.153 Y96.634 E1.08568
G1 X115.495 Y97.313 E1.11097
G1 X116.789 Y100.234 E1.21723
G1 X116.809 Y100.287 E1.21911
G1 X117.365 Y99.924 E1.2412
G1 X118.067 Y99.561 E1.26748
G1 X118.801 Y99.271 E1.29373
G1 X119.561 Y99.057 E1.31999
G1 X120.339 Y98.92 E1.34627
G1 X121.297 Y98.861 E1.37819
G1 X122.743 Y98.861 E1.42629
G1 X123.532 Y98.901 E1.45256
G1 X124.312 Y99.02 E1.47881
G1 X125.077 Y99.218 E1.50509
G1 X125.817 Y99.492 E1.53133
G1 X126.526 Y99.84 E1.5576
G1 X127.336 Y100.356 E1.58955
G1 X128.507 Y101.209 E1.63773
G1 X129.12 Y101.706 E1.66398
G1 X129.681 Y102.262 E1.69025
G1 X130.183 Y102.872 E1.71652
G1 X130.62 Y103.53 E1.7428
G1 X130.988 Y104.228 E1.76904
G1 X131.33 Y105.096 E1.80007
G1 X131.778 Y106.47 E1.84814
G1 X131.984 Y107.232 E1.87439
G1 X132.113 Y108.011 E1.90065
G1 X132.161 Y108.8 E1.92695
G1 X132.13 Y109.589 E1.95321
G1 X132.066 Y110.044 E1.96849
G1 X132.135 Y110.326 E1.97815
G1 X132.284 Y111.102 E2.00443
G1 X132.353 Y111.888 E2.03067
G1 X132.343 Y112.678 E2.05695
G1 X132.203 Y113.735 E2.09241
G1 X131.7 Y116.211 E2.17645
G1 X131.504 Y116.976 E2.20271
G1 X131.231 Y117.717 E2.22898
G1 X131.048 Y118.115 E2.24355
G1 X130.027 Y120.18 E2.32016
G1 X129.642 Y120.869 E2.34642
G1 X129.189 Y121.516 E2.37269
G1 X128.717 Y122.067 E2.39682
G1 X128.329 Y122.479 E2.41564
G1 X128.259 Y122.663 E2.42219
G1 X127.904 Y123.369 E2.44847
G1 X127.48 Y124.035 E2.47473
G1 X126.99 Y124.654 E2.50099
G1 X126.44 Y125.221 E2.52726
G1 X125.836 Y125.729 E2.55351
G1 X125.281 Y126.113 E2.57596
G1 X123.031 Y127.53 E2.6644
G1 X122.342 Y127.917 E2.69068
G1 X121.968 Y128.079 E2.70424
G1 X120.761 Y128.958 E2.7539
G1 X120.601 Y129.063 E2.76026
G1 X120.472 Y129.265 E2.76824
G1 X120.293 Y129.492 E2.77785
G1 X120.172 Y129.729 E2.7867
G1 X119.743 Y130.392 E2.81297
G1 X119.304 Y130.941 E2.83635
G1 X118.942 Y131.544 E2.85974
G1 X118.47 Y132.177 E2.886
G1 X117.936 Y132.759 E2.91227
G1 X117.73 Y132.942 E2.92144
G1 X117.641 Y133.195 E2.93036
G1 X117.306 Y133.91 E2.95662
G1 X116.9 Y134.587 E2.98288
G1 X116.428 Y135.22 E3.00914
G1 X115.894 Y135.802 E3.03541
G1 X115.304 Y136.327 E3.06168
G1 X114.663 Y136.789 E3.08796
G1 X113.98 Y137.185 E3.11422
G1 X113.561 Y137.384 E3.12964
G1 X113.32 Y137.49 E3.1384
G1 X112.582 Y137.771 E3.16466
G1 X111.82 Y137.976 E3.19091
G1 X111.04 Y138.102 E3.21719
G1 X110.252 Y138.15 E3.24345
G1 X109.463 Y138.117 E3.26971
G1 X108.681 Y138.005 E3.29599
G1 X107.915 Y137.814 E3.32224
G1 X107.081 Y137.508 E3.35179
G1 X106.649 Y137.321 E3.36745
G1 X105.942 Y136.971 E3.39369
G1 X105.273 Y136.551 E3.41996
G1 X105.247 Y136.53 E3.42107
G1 X105.027 Y136.411 E3.42939
G1 X104.7 Y136.22 E3.44199
G1 X104.039 Y135.788 E3.46825
G1 X103.425 Y135.291 E3.49452
G1 X102.865 Y134.735 E3.52077
G1 X102.364 Y134.124 E3.54705
G1 X101.927 Y133.467 E3.57329
G1 X101.559 Y132.768 E3.59957
G1 X101.263 Y132.036 E3.62583
G1 X101.043 Y131.277 E3.65211
G1 X100.936 Y130.602 E3.67484
G1 X100.557 Y130.363 E3.68975
G1 X100.175 Y130.077 E3.70562
G1 X98.47 Y128.714 E3.77822
G1 X97.878 Y128.19 E3.80452
G1 X97.343 Y127.609 E3.83078
G1 X96.87 Y126.977 E3.85704
G1 X96.569 Y126.494 E3.87597
G1 X95.322 Y124.314 E3.9595
G1 X95.049 Y123.773 E3.97965
G1 X94.49 Y123.566 E3.99948
G1 X93.781 Y123.218 E4.02575
G1 X92.972 Y122.702 E4.05766
G1 X91.592 Y121.697 E4.11445
G1 X90.978 Y121.201 E4.1407
G1 X90.418 Y120.644 E4.16697
G1 X89.916 Y120.034 E4.19324
G1 X89.479 Y119.377 E4.21949
G1 X89.11 Y118.679 E4.24575
G1 X88.767 Y117.805 E4.27698
G1 X88.24 Y116.185 E4.33364
G1 X88.034 Y115.423 E4.35989
G1 X87.906 Y114.643 E4.38618
G1 X87.857 Y113.855 E4.41244
G1 X87.889 Y113.066 E4.4387
G1 X88 Y112.284 E4.46497
G1 X88.24 Y111.359 E4.49676
G1 X88.767 Y109.739 E4.55342
G1 X89.049 Y109.001 E4.5797
G1 X89.404 Y108.296 E4.60595
G1 X89.828 Y107.63 E4.63221
G1 X89.938 Y107.491 E4.6381
G1 X89.7 Y106.766 E4.66348
G1 X89.532 Y105.994 E4.68976
G1 X89.447 Y105.29 E4.71335
G1 X89.419 Y104.911 E4.72599
G1 X89.401 Y104.121 E4.75227
G1 X89.463 Y103.334 E4.77853
G1 X89.578 Y102.698 E4.80002
G1 X89.487 Y101.958 E4.82482
G1 X89.488 Y100.846 E4.86181
G1 X89.493 Y100.777 E4.86411
G1 X89.59 Y99.994 E4.89035
G1 X89.766 Y99.224 E4.91662
G1 X89.833 Y99.034 E4.92332
G1 X89.555 Y98.829 E4.93481
G1 X88.971 Y98.298 E4.96106
G1 X88.443 Y97.71 E4.98735
G1 X87.977 Y97.073 E5.0136
G1 X87.578 Y96.391 E5.03988
G1 X87.25 Y95.673 E5.06613
G1 X87.084 Y95.212 E5.08243
G1 X86.813 Y94.38 E5.11153
G1 X86.606 Y93.617 E5.13783
G1 X86.478 Y92.838 E5.16408
G1 X86.429 Y92.05 E5.19034
G1 X86.461 Y91.261 E5.21661
G1 X86.572 Y90.479 E5.24288
G1 X86.813 Y89.548 E5.27486
G1 X87.084 Y88.716 E5.30397
G1 X87.366 Y87.979 E5.33021
G1 X87.721 Y87.274 E5.35647
G1 X88.146 Y86.608 E5.38274
G1 X88.636 Y85.989 E5.409
G0 F6000 X88.99 Y86.193
G1 F1200 X89.532 Y85.647 E5.43459
G1 X90.128 Y85.161 E5.46017
G1 X90.48 Y84.919 E5.47437
G1 X91.35 Y84.356 E5.50884
G1 X92.016 Y83.973 E5.53439
G1 X92.719 Y83.66 E5.55999
G1 X93.451 Y83.422 E5.58559
G1 X94.203 Y83.262 E5.61116
G1 X94.968 Y83.18 E5.63675
G1 X95.37 Y83.169 E5.65013
G1 X96.246 Y83.169 E5.67926
G1 X97.014 Y83.209 E5.70484
G1 X97.774 Y83.328 E5.73043
G1 X98.517 Y83.526 E5.756
G1 X99.32 Y83.838 E5.78465
G1 X101.56 Y84.861 E5.86656
G1 X102.242 Y85.216 E5.89213
G1 X102.85 Y85.616 E5.91634
G1 X105.101 Y87.26 E6.00905
G1 X105.698 Y87.745 E6.03463
G1 X105.994 Y88.028 E6.04825
G1 X107.359 Y89.406 E6.11276
G1 X108.221 Y90.092 E6.1494
G1 X108.699 Y90.339 E6.1673
G1 X109.364 Y90.727 E6.19291
G1 X109.984 Y91.182 E6.21849
G1 X110.439 Y91.585 E6.2387
G1 X112.141 Y93.225 E6.31731
G1 X112.666 Y93.787 E6.34289
G1 X113.047 Y94.28 E6.36362
G1 X114.404 Y96.198 E6.44176
G1 X114.815 Y96.848 E6.46734
G1 X115.129 Y97.475 E6.49066
G1 X116.423 Y100.396 E6.59692
G1 X116.62 Y100.913 E6.61532
G1 X116.94 Y100.68 E6.62849
G1 X117.584 Y100.26 E6.65406
G1 X118.269 Y99.909 E6.67966
G1 X118.986 Y99.631 E6.70524
G1 X119.728 Y99.429 E6.73082
G1 X120.487 Y99.305 E6.75639
G1 X121.297 Y99.261 E6.78338
G1 X122.743 Y99.261 E6.83147
G1 X123.511 Y99.301 E6.85705
G1 X124.271 Y99.42 E6.88263
G1 X125.014 Y99.618 E6.90821
G1 X125.733 Y99.892 E6.9338
G1 X126.419 Y100.239 E6.95937
G1 X127.1 Y100.68 E6.98635
G1 X128.271 Y101.533 E7.03454
G1 X128.868 Y102.017 E7.0601
G1 X129.412 Y102.561 E7.08569
G1 X129.897 Y103.159 E7.1113
G1 X130.316 Y103.803 E7.13685
G1 X130.667 Y104.488 E7.16245
G1 X130.949 Y105.22 E7.18854
G1 X131.397 Y106.594 E7.23661
G1 X131.598 Y107.337 E7.26221
G1 X131.72 Y108.096 E7.28778
G1 X131.762 Y108.864 E7.31336
G1 X131.724 Y109.632 E7.33894
G1 X131.658 Y110.059 E7.35331
G1 X131.747 Y110.421 E7.36571
G1 X131.89 Y111.177 E7.3913
G1 X131.955 Y111.943 E7.41686
G1 X131.94 Y112.712 E7.44245
G1 X131.811 Y113.655 E7.4741
G1 X131.308 Y116.131 E7.55814
G1 X131.116 Y116.876 E7.58373
G1 X130.689 Y117.938 E7.6218
G1 X129.668 Y120.003 E7.69842
G1 X129.292 Y120.674 E7.724
G1 X128.848 Y121.302 E7.74958
G1 X128.425 Y121.793 E7.77113
G1 X127.984 Y122.261 E7.79252
G1 X127.885 Y122.52 E7.80174
G1 X127.537 Y123.206 E7.82733
G1 X127.119 Y123.851 E7.85289
G1 X126.636 Y124.45 E7.87848
G1 X126.094 Y124.996 E7.90407
G1 X125.498 Y125.482 E7.92965
G1 X125.067 Y125.775 E7.94698
G1 X122.817 Y127.192 E8.03542
G1 X122.146 Y127.567 E8.06099
G1 X121.766 Y127.731 E8.07476
G1 X120.526 Y128.634 E8.12578
G1 X120.31 Y128.775 E8.13435
G1 X120.134 Y129.05 E8.14521
G1 X119.951 Y129.28 E8.15499
G1 X119.795 Y129.581 E8.16627
G1 X119.371 Y130.223 E8.19186
G1 X118.977 Y130.703 E8.21251
G1 X118.938 Y130.784 E8.2155
G1 X118.531 Y131.437 E8.24109
G1 X118.058 Y132.044 E8.26669
G1 X117.525 Y132.599 E8.29228
G1 X117.385 Y132.717 E8.29837
G1 X117.232 Y133.136 E8.31321
G1 X116.896 Y133.827 E8.33876
G1 X116.489 Y134.48 E8.36435
G1 X116.016 Y135.087 E8.38995
G1 X115.483 Y135.642 E8.41554
G1 X114.896 Y136.138 E8.4411
G1 X114.26 Y136.571 E8.46669
G1 X113.4 Y137.018 E8.49893
G1 X113.159 Y137.124 E8.50769
G1 X112.44 Y137.396 E8.53325
G1 X111.696 Y137.593 E8.55885
G1 X110.936 Y137.711 E8.58443
G1 X110.168 Y137.75 E8.61001
G1 X109.4 Y137.709 E8.63559
G1 X108.641 Y137.588 E8.66115
G1 X107.898 Y137.389 E8.68674
G1 X107.24 Y137.141 E8.71012
G1 X106.808 Y136.954 E8.72578
G1 X106.119 Y136.612 E8.75137
G1 X105.469 Y136.201 E8.77694
G1 X105.229 Y136.066 E8.7861
G1 X104.902 Y135.875 E8.7987
G1 X104.259 Y135.453 E8.82428
G1 X103.663 Y134.967 E8.84986
G1 X103.121 Y134.421 E8.87544
G1 X102.638 Y133.822 E8.90104
G1 X102.22 Y133.176 E8.92663
G1 X101.872 Y132.49 E8.95221
G1 X101.596 Y131.772 E8.9778
G1 X101.397 Y131.029 E9.00338
G1 X101.299 Y130.359 E9.0259
G1 X100.424 Y129.764 E9.0611
G1 X98.719 Y128.401 E9.1337
G1 X98.144 Y127.89 E9.15928
G1 X97.625 Y127.322 E9.18487
G1 X97.168 Y126.704 E9.21044
G1 X96.917 Y126.295 E9.2264
G1 X95.67 Y124.115 E9.30993
G1 X95.334 Y123.451 E9.33468
G1 X95.293 Y123.44 E9.33609
G1 X94.574 Y123.166 E9.36169
G1 X93.888 Y122.819 E9.38725
G1 X93.208 Y122.379 E9.41419
G1 X91.828 Y121.374 E9.47097
G1 X91.23 Y120.889 E9.49658
G1 X90.686 Y120.345 E9.52217
G1 X90.202 Y119.748 E9.54773
G1 X89.782 Y119.104 E9.57331
G1 X89.431 Y118.419 E9.59891
G1 X89.147 Y117.681 E9.62521
G1 X88.62 Y116.061 E9.68187
G1 X88.42 Y115.318 E9.70746
G1 X88.299 Y114.559 E9.73302
G1 X88.257 Y113.791 E9.7586
G1 X88.295 Y113.023 E9.78418
G1 X88.413 Y112.263 E9.80976
G1 X88.62 Y111.483 E9.8366
G1 X89.147 Y109.863 E9.89326
G1 X89.423 Y109.145 E9.91885
G1 X89.771 Y108.459 E9.94443
G1 X90.189 Y107.813 E9.97002
G1 X90.401 Y107.551 E9.98123
G1 X90.284 Y107.279 E9.99108
G1 X90.056 Y106.545 E10.01664
G1 X89.905 Y105.791 E10.04222
G1 X89.846 Y105.26 E10.05999
G1 X89.818 Y104.881 E10.07263
G1 X89.801 Y104.112 E10.09821
G1 X89.865 Y103.346 E10.12378
G1 X89.986 Y102.701 E10.14561
G1 X89.967 Y102.614 E10.14857
G1 X89.881 Y101.85 E10.17414
G1 X89.887 Y100.875 E10.20657
G1 X89.892 Y100.806 E10.20887
G1 X89.988 Y100.043 E10.23445
G1 X90.162 Y99.294 E10.26002
G1 X90.307 Y98.888 E10.27436
G1 X89.778 Y98.494 E10.2963
G1 X89.212 Y97.973 E10.32189
G1 X88.703 Y97.396 E10.34748
G1 X88.257 Y96.769 E10.37307
G1 X87.879 Y96.1 E10.39863
G1 X87.464 Y95.088 E10.435
G1 X87.193 Y94.256 E10.46411
G1 X86.993 Y93.513 E10.4897
G1 X86.871 Y92.754 E10.51527
G1 X86.829 Y91.986 E10.54085
G1 X86.867 Y91.217 E10.56646
G1 X86.984 Y90.457 E10.59203
G1 X87.193 Y89.672 E10.61905
G1 X87.464 Y88.84 E10.64816
G1 X87.74 Y88.122 E10.67374
G1 X88.089 Y87.437 E10.69931
G1 X88.507 Y86.791 E10.7249
G1 X88.99 Y86.193 E10.75047
G0 F6000 X89.343 Y86.399
G1 F1200 X89.877 Y85.875 E10.77535
G1 X90.697 Y85.255 E10.80954
G1 X91.567 Y84.692 E10.84401
G1 X92.216 Y84.32 E10.86889
G1 X92.901 Y84.019 E10.89378
G1 X93.614 Y83.793 E10.91865
G1 X94.347 Y83.644 E10.94353
G1 X95.37 Y83.569 E10.97765
G1 X96.246 Y83.569 E11.00679
G1 X96.993 Y83.609 E11.03167
G1 X97.731 Y83.728 E11.05653
G1 X98.453 Y83.926 E11.08143
G1 X99.154 Y84.202 E11.10649
G1 X101.394 Y85.225 E11.18839
G1 X102.057 Y85.571 E11.21327
G1 X102.615 Y85.939 E11.2355
G1 X104.866 Y87.583 E11.32821
G1 X105.71 Y88.31 E11.36526
G1 X107.09 Y89.703 E11.43047
G1 X108 Y90.428 E11.46917
G1 X108.516 Y90.694 E11.48848
G1 X109.161 Y91.073 E11.51336
G1 X109.763 Y91.518 E11.53826
G1 X110.161 Y91.873 E11.556
G1 X111.863 Y93.513 E11.63461
G1 X112.373 Y94.06 E11.65949
G1 X112.72 Y94.511 E11.67841
G1 X114.077 Y96.429 E11.75656
G1 X114.476 Y97.062 E11.78145
G1 X114.763 Y97.637 E11.80282
G1 X116.057 Y100.558 E11.90908
G1 X116.323 Y101.257 E11.93395
G1 X116.404 Y101.565 E11.94455
G1 X117.175 Y101.003 E11.97628
G1 X117.803 Y100.595 E12.00119
G1 X118.47 Y100.257 E12.02606
G1 X119.17 Y99.992 E12.05095
G1 X119.893 Y99.803 E12.07581
G1 X120.633 Y99.693 E12.10069
G1 X121.297 Y99.661 E12.1228
G1 X122.743 Y99.661 E12.1709
G1 X123.49 Y99.701 E12.19578
G1 X124.228 Y99.82 E12.22064
G1 X124.95 Y100.018 E12.24554
G1 X125.646 Y100.291 E12.27041
G1 X126.309 Y100.638 E12.2953
G1 X126.865 Y101.003 E12.31742
G1 X128.036 Y101.856 E12.3656
G1 X128.616 Y102.328 E12.39047
G1 X129.142 Y102.859 E12.41533
G1 X129.609 Y103.444 E12.44023
G1 X130.011 Y104.075 E12.46511
G1 X130.343 Y104.745 E12.48998
G1 X130.569 Y105.344 E12.51128
G1 X131.017 Y106.718 E12.55935
G1 X131.211 Y107.441 E12.58424
G1 X131.326 Y108.18 E12.60912
G1 X131.362 Y108.927 E12.63399
G1 X131.318 Y109.674 E12.65888
G1 X131.25 Y110.077 E12.67247
G1 X131.358 Y110.517 E12.68754
G1 X131.497 Y111.252 E12.71242
G1 X131.557 Y111.997 E12.73728
G1 X131.536 Y112.745 E12.76217
G1 X131.419 Y113.576 E12.79008
G1 X130.916 Y116.052 E12.87412
G1 X130.728 Y116.776 E12.89899
G1 X130.331 Y117.761 E12.93432
G1 X129.31 Y119.826 E13.01094
G1 X128.943 Y120.477 E13.03579
G1 X128.509 Y121.086 E13.06066
G1 X128.134 Y121.519 E13.07972
G1 X127.64 Y122.044 E13.10369
G1 X127.512 Y122.376 E13.11553
G1 X127.17 Y123.042 E13.14043
G1 X126.759 Y123.667 E13.16531
G1 X126.283 Y124.244 E13.19019
G1 X125.749 Y124.768 E13.21507
G1 X124.854 Y125.436 E13.25221
G1 X122.604 Y126.853 E13.34065
G1 X121.951 Y127.217 E13.36552
G1 X121.561 Y127.383 E13.37962
G1 X121.522 Y127.414 E13.38127
G1 X120.29 Y128.311 E13.43196
G1 X120.019 Y128.487 E13.44271
G1 X119.797 Y128.834 E13.45641
G1 X119.614 Y129.061 E13.46611
G1 X119.419 Y129.431 E13.48002
G1 X119 Y130.051 E13.50491
G1 X118.637 Y130.482 E13.52365
G1 X118.527 Y130.698 E13.53171
G1 X118.119 Y131.325 E13.55659
G1 X117.647 Y131.905 E13.58146
G1 X117.115 Y132.431 E13.60635
G1 X117.047 Y132.486 E13.60926
G1 X116.824 Y133.074 E13.63017
G1 X116.485 Y133.741 E13.65506
G1 X116.077 Y134.368 E13.67994
G1 X115.605 Y134.948 E13.70481
G1 X115.073 Y135.474 E13.72969
G1 X114.489 Y135.941 E13.75456
G1 X113.857 Y136.342 E13.77946
G1 X113.239 Y136.652 E13.80245
G1 X112.998 Y136.758 E13.81121
G1 X112.298 Y137.022 E13.83609
G1 X111.574 Y137.21 E13.86097
G1 X110.834 Y137.319 E13.88585
G1 X110.087 Y137.349 E13.91071
G1 X109.34 Y137.299 E13.93562
G1 X108.604 Y137.17 E13.96047
G1 X107.885 Y136.963 E13.98535
G1 X107.399 Y136.774 E14.0027
